X:42
T:Reel 42
M:4/4
K:Gmaj
L:1/8
dc|BGAF DGG2| (3FED AF AcBA|BcAF G2G2|dcBA BGAc|BGAF D2D2|FGAB cAdc|BGAF GFGA|BcAB G2|BA|GBdf e2dB|AcBc A2cA|BdGB dcdB|ADDE D2GA|B>G (3GFG BGAB|cABG ABcA|Bdef gefc|BGAF G2|
